data/icons/svg/spotify.svg

<?xml version="1.0" encoding="UTF-8" standalone="no"?>
<!-- Created with Inkscape (http://www.inkscape.org/) -->
<svg
   xmlns:dc="http://purl.org/dc/elements/1.1/"
   xmlns:cc="http://creativecommons.org/ns#"
   xmlns:rdf="http://www.w3.org/1999/02/22-rdf-syntax-ns#"
   xmlns:svg="http://www.w3.org/2000/svg"
   xmlns="http://www.w3.org/2000/svg"
   xmlns:xlink="http://www.w3.org/1999/xlink"
   xmlns:sodipodi="http://sodipodi.sourceforge.net/DTD/sodipodi-0.dtd"
   xmlns:inkscape="http://www.inkscape.org/namespaces/inkscape"
   width="48"
   height="48"
   id="svg2"
   sodipodi:version="0.32"
   inkscape:version="0.46"
   version="1.0"
   sodipodi:docname="spotify.svg"
   inkscape:output_extension="org.inkscape.output.svg.inkscape">
  <defs
     id="defs4">
    <linearGradient
       inkscape:collect="always"
       id="linearGradient7729">
      <stop
         style="stop-color:#467700;stop-opacity:1"
         offset="0"
         id="stop7731" />
      <stop
         style="stop-color:#518900;stop-opacity:1"
         offset="1"
         id="stop7733" />
    </linearGradient>
    <linearGradient
       inkscape:collect="always"
       id="linearGradient7721">
      <stop
         style="stop-color:#1a4300;stop-opacity:1"
         offset="0"
         id="stop7723" />
      <stop
         style="stop-color:#215300;stop-opacity:1"
         offset="1"
         id="stop7725" />
    </linearGradient>
    <linearGradient
       inkscape:collect="always"
       id="linearGradient7713">
      <stop
         style="stop-color:#193d00;stop-opacity:1"
         offset="0"
         id="stop7715" />
      <stop
         style="stop-color:#1f4b00;stop-opacity:1"
         offset="1"
         id="stop7717" />
    </linearGradient>
    <linearGradient
       inkscape:collect="always"
       id="linearGradient6355">
      <stop
         style="stop-color:#23371c;stop-opacity:1"
         offset="0"
         id="stop6357" />
      <stop
         style="stop-color:#004100;stop-opacity:1"
         offset="1"
         id="stop6359" />
    </linearGradient>
    <linearGradient
       inkscape:collect="always"
       id="linearGradient6347">
      <stop
         style="stop-color:#abd033;stop-opacity:1"
         offset="0"
         id="stop6349" />
      <stop
         style="stop-color:#9ec02d;stop-opacity:0;"
         offset="1"
         id="stop6351" />
    </linearGradient>
    <linearGradient
       id="linearGradient5519">
      <stop
         style="stop-color:#88ae04;stop-opacity:1"
         offset="0"
         id="stop5521" />
      <stop
         style="stop-color:#73a400;stop-opacity:1"
         offset="1"
         id="stop5523" />
    </linearGradient>
    <inkscape:perspective
       sodipodi:type="inkscape:persp3d"
       inkscape:vp_x="0 : 526.18109 : 1"
       inkscape:vp_y="0 : 1000 : 0"
       inkscape:vp_z="744.09448 : 526.18109 : 1"
       inkscape:persp3d-origin="372.04724 : 350.78739 : 1"
       id="perspective10" />
    <inkscape:perspective
       id="perspective5505"
       inkscape:persp3d-origin="372.04724 : 350.78739 : 1"
       inkscape:vp_z="744.09448 : 526.18109 : 1"
       inkscape:vp_y="0 : 1000 : 0"
       inkscape:vp_x="0 : 526.18109 : 1"
       sodipodi:type="inkscape:persp3d" />
    <linearGradient
       inkscape:collect="always"
       xlink:href="#linearGradient5519"
       id="linearGradient6853"
       gradientUnits="userSpaceOnUse"
       x1="119.5"
       y1="91.362183"
       x2="102.5"
       y2="128.36218" />
    <radialGradient
       inkscape:collect="always"
       xlink:href="#linearGradient6355"
       id="radialGradient6855"
       gradientUnits="userSpaceOnUse"
       gradientTransform="matrix(1.1318093,0.197699,-0.1703116,0.9750189,-125.44033,-100.50883)"
       cx="147.76869"
       cy="120.16964"
       fx="147.76869"
       fy="120.16964"
       r="14.451495" />
    <linearGradient
       inkscape:collect="always"
       xlink:href="#linearGradient6347"
       id="linearGradient6857"
       gradientUnits="userSpaceOnUse"
       gradientTransform="translate(-125.45979,-77.491488)"
       x1="149.09062"
       y1="85.104187"
       x2="139.1649"
       y2="106.61218" />
    <filter
       inkscape:collect="always"
       id="filter7655"
       x="-1.0712544"
       width="3.1425087"
       y="-1.0712544"
       height="3.1425087">
      <feGaussianBlur
         inkscape:collect="always"
         stdDeviation="20.086019"
         id="feGaussianBlur7657" />
    </filter>
    <linearGradient
       inkscape:collect="always"
       xlink:href="#linearGradient7713"
       id="linearGradient7719"
       x1="38.714096"
       y1="17.417631"
       x2="31.1127"
       y2="15.165503"
       gradientUnits="userSpaceOnUse"
       gradientTransform="matrix(0.999924,1.232938e-2,-1.232938e-2,0.999924,0.2587749,-0.2864042)" />
    <linearGradient
       inkscape:collect="always"
       xlink:href="#linearGradient7721"
       id="linearGradient7727"
       x1="35.708893"
       y1="25.90625"
       x2="27.400389"
       y2="22.312458"
       gradientUnits="userSpaceOnUse"
       gradientTransform="matrix(0.965063,1.1899533e-2,-1.232938e-2,0.999924,1.1112913,-0.2758924)" />
    <linearGradient
       inkscape:collect="always"
       xlink:href="#linearGradient7729"
       id="linearGradient7735"
       x1="35.607697"
       y1="31.414557"
       x2="23.13369"
       y2="26.433243"
       gradientUnits="userSpaceOnUse"
       gradientTransform="matrix(0.8596429,1.059967e-2,-1.232938e-2,0.999924,3.5039934,-0.2463897)" />
    <filter
       inkscape:collect="always"
       id="filter7785"
       x="-0.089479765"
       width="1.1789595"
       y="-0.14834692"
       height="1.2966938">
      <feGaussianBlur
         inkscape:collect="always"
         stdDeviation="1.5684595"
         id="feGaussianBlur7787" />
    </filter>
  </defs>
  <sodipodi:namedview
     id="base"
     pagecolor="#ffffff"
     bordercolor="#666666"
     borderopacity="1.0"
     gridtolerance="10000"
     guidetolerance="10"
     objecttolerance="10"
     inkscape:pageopacity="0.0"
     inkscape:pageshadow="2"
     inkscape:zoom="5.6568542"
     inkscape:cx="-0.10040691"
     inkscape:cy="47.355194"
     inkscape:document-units="px"
     inkscape:current-layer="layer1"
     showgrid="false"
     inkscape:snap-bbox="true"
     inkscape:snap-nodes="false"
     inkscape:window-width="1440"
     inkscape:window-height="853"
     inkscape:window-x="0"
     inkscape:window-y="25">
    <inkscape:grid
       type="xygrid"
       id="grid5511"
       visible="true"
       enabled="true" />
  </sodipodi:namedview>
  <metadata
     id="metadata7">
    <rdf:RDF>
      <cc:Work
         rdf:about="">
        <dc:format>image/svg+xml</dc:format>
        <dc:type
           rdf:resource="http://purl.org/dc/dcmitype/StillImage" />
      </cc:Work>
    </rdf:RDF>
  </metadata>
  <g
     inkscape:label="Layer 1"
     inkscape:groupmode="layer"
     id="layer1">
    <g
       id="g6847"
       transform="translate(-0.29021,-0.7456946)">
      <path
         sodipodi:type="arc"
         style="opacity:0.64566926;fill:#000000;fill-opacity:1;fill-rule:nonzero;stroke:none;stroke-width:1px;stroke-linecap:butt;stroke-linejoin:miter;marker:none;marker-start:none;marker-mid:none;marker-end:none;stroke-miterlimit:4;stroke-dasharray:none;stroke-dashoffset:0;stroke-opacity:1;visibility:visible;display:inline;overflow:visible;filter:url(#filter7655);enable-background:accumulate"
         id="path6363"
         sodipodi:cx="112.5"
         sodipodi:cy="109.86218"
         sodipodi:rx="22.5"
         sodipodi:ry="22.5"
         d="M 135,109.86218 A 22.5,22.5 0 1 1 90,109.86218 A 22.5,22.5 0 1 1 135,109.86218 z"
         transform="matrix(0.4666666,0,0,0.111111,-28.709782,33.038802)" />
      <path
         transform="translate(-88.70979,-85.616488)"
         d="M 135,109.86218 A 22.5,22.5 0 1 1 90,109.86218 A 22.5,22.5 0 1 1 135,109.86218 z"
         sodipodi:ry="22.5"
         sodipodi:rx="22.5"
         sodipodi:cy="109.86218"
         sodipodi:cx="112.5"
         id="path5513"
         style="opacity:1;fill:url(#linearGradient6853);fill-opacity:1;fill-rule:nonzero;stroke:none;stroke-width:1px;stroke-linecap:butt;stroke-linejoin:miter;marker:none;marker-start:none;marker-mid:none;marker-end:none;stroke-miterlimit:4;stroke-dasharray:none;stroke-dashoffset:0;stroke-opacity:1;visibility:visible;display:inline;overflow:visible;enable-background:accumulate"
         sodipodi:type="arc" />
      <path
         sodipodi:nodetypes="csccscc"
         id="path5529"
         d="M 7.6378996,39.420202 C 8.1682296,39.420202 11.29843,32.092852 23.23086,33.507062 C 35.16329,34.921272 36.54089,42.778952 36.54089,42.778952 C 34.49039,44.179572 32.3092,45.405922 29.55821,45.872552 C 29.55821,45.872552 26.55929,40.325532 21.1676,40.679082 C 15.77591,41.032632 13.91347,44.193172 13.91347,44.193172 C 11.14188,43.198092 8.9957096,41.593432 7.6378996,39.420202 z"
         style="fill:url(#radialGradient6855);fill-opacity:1;fill-rule:evenodd;stroke:none;stroke-width:1px;stroke-linecap:butt;stroke-linejoin:miter;stroke-opacity:1" />
      <path
         sodipodi:nodetypes="cccc"
         id="path5531"
         d="M 2.6652096,29.120692 C 35.315841,10.631207 30.66521,27.370692 44.66521,26.495692 C 44.14296,15.562843 35.20292,3.7456934 23.66521,3.7456934 C 6.6997296,4.3119254 1.9479196,20.58416 2.6652096,29.120692 z"
         style="fill:url(#linearGradient6857);fill-opacity:1;fill-rule:evenodd;stroke:none;stroke-width:1px;stroke-linecap:butt;stroke-linejoin:miter;stroke-opacity:1;filter:url(#filter7785)" />
    </g>
    <path
       style="opacity:1;fill:url(#linearGradient7719);fill-opacity:1;fill-rule:nonzero;stroke:none;stroke-width:1px;stroke-linecap:butt;stroke-linejoin:miter;marker:none;marker-start:none;marker-mid:none;marker-end:none;stroke-miterlimit:4;stroke-dasharray:none;stroke-dashoffset:0;stroke-opacity:1;visibility:visible;display:inline;overflow:visible;enable-background:accumulate"
       d="M 10.300245,11.619555 C 8.241027,12.012805 7.9425774,15.355405 10.765465,15.313073 C 21.977063,13.20149 31.048724,15.49889 39.670046,19.826041 C 40.808245,20.378971 42.647611,18.028703 41.02047,16.758511 C 31.316836,11.614062 19.960975,9.8780472 10.300245,11.619555 z"
       id="path7661"
       sodipodi:nodetypes="ccccc" />
    <path
       style="opacity:1;fill:url(#linearGradient7727);fill-opacity:1;fill-rule:nonzero;stroke:none;stroke-width:1px;stroke-linecap:butt;stroke-linejoin:miter;marker:none;marker-start:none;marker-mid:none;marker-end:none;stroke-miterlimit:4;stroke-dasharray:none;stroke-dashoffset:0;stroke-opacity:1;visibility:visible;display:inline;overflow:visible;enable-background:accumulate"
       d="M 12.303532,19.144827 C 10.172718,19.381037 9.829391,22.969311 12.56196,22.64828 C 21.903655,21.50982 27.85363,22.62879 35.683323,25.808592 C 37.647192,26.873264 38.724998,23.482585 36.929338,22.604961 C 28.133565,18.889799 21.412131,18.726151 12.303532,19.144827 z"
       id="path7666"
       sodipodi:nodetypes="ccccc" />
    <path
       style="opacity:1;fill:url(#linearGradient7735);fill-opacity:1;fill-rule:nonzero;stroke:none;stroke-width:1px;stroke-linecap:butt;stroke-linejoin:miter;marker:none;marker-start:none;marker-mid:none;marker-end:none;stroke-miterlimit:4;stroke-dasharray:none;stroke-dashoffset:0;stroke-opacity:1;visibility:visible;display:inline;overflow:visible;enable-background:accumulate"
       d="M 14.447653,25.703011 C 12.75416,26.30833 13.053805,29.148649 14.863112,29.052139 C 17.870832,28.722372 20.153948,28.706138 23.615532,29.097554 C 27.126432,29.494545 29.233258,30.435974 32.157356,31.453048 C 33.350406,31.961876 34.447173,29.764482 33.187538,28.528027 C 29.966426,27.274723 27.415802,26.174879 23.388506,25.719498 C 20.084015,25.348048 17.755584,25.371512 14.447653,25.703011 z"
       id="path7668"
       sodipodi:nodetypes="ccscccc" />
  </g>
</svg>

<?xml version="1.0" encoding="UTF-8" standalone="no"?>
<!-- Created with Inkscape (http://www.inkscape.org/) -->
<svg id="svg2" xmlns:rdf="http://www.w3.org/1999/02/22-rdf-syntax-ns#" xmlns="http://www.w3.org/2000/svg" height="48" width="48" version="1.0" xmlns:cc="http://creativecommons.org/ns#" xmlns:xlink="http://www.w3.org/1999/xlink" xmlns:dc="http://purl.org/dc/elements/1.1/">
 <defs id="defs4">
  <linearGradient id="linearGradient6853" y2="128.36" gradientUnits="userSpaceOnUse" x2="102.5" y1="91.362" x1="119.5">
   <stop id="stop5521" stop-color="#88ae04" offset="0"/>
   <stop id="stop5523" stop-color="#73a400" offset="1"/>
  </linearGradient>
  <radialGradient id="radialGradient6855" gradientUnits="userSpaceOnUse" cy="120.17" cx="147.77" gradientTransform="matrix(1.1318 .19770 -.17031 .97502 -125.44 -100.51)" r="14.451">
   <stop id="stop6357" stop-color="#23371c" offset="0"/>
   <stop id="stop6359" stop-color="#004100" offset="1"/>
  </radialGradient>
  <linearGradient id="linearGradient6857" y2="106.61" gradientUnits="userSpaceOnUse" x2="139.16" gradientTransform="translate(-125.46 -77.491)" y1="85.104" x1="149.09">
   <stop id="stop6349" stop-color="#abd033" offset="0"/>
   <stop id="stop6351" stop-color="#9ec02d" stop-opacity="0" offset="1"/>
  </linearGradient>
  <filter id="filter7655" height="3.1425" width="3.1425" y="-1.0713" x="-1.0713">
   <feGaussianBlur id="feGaussianBlur7657" stdDeviation="20.086019"/>
  </filter>
  <linearGradient id="linearGradient7719" y2="15.166" gradientUnits="userSpaceOnUse" x2="31.113" gradientTransform="matrix(.99992 .012329 -.012329 .99992 .25877 -.28640)" y1="17.418" x1="38.714">
   <stop id="stop7715" stop-color="#193d00" offset="0"/>
   <stop id="stop7717" stop-color="#1f4b00" offset="1"/>
  </linearGradient>
  <linearGradient id="linearGradient7727" y2="22.312" gradientUnits="userSpaceOnUse" x2="27.4" gradientTransform="matrix(.96506 0.0119 -.012329 .99992 1.1113 -.27589)" y1="25.906" x1="35.709">
   <stop id="stop7723" stop-color="#1a4300" offset="0"/>
   <stop id="stop7725" stop-color="#215300" offset="1"/>
  </linearGradient>
  <linearGradient id="linearGradient7735" y2="26.433" gradientUnits="userSpaceOnUse" x2="23.134" gradientTransform="matrix(.85964 0.0106 -.012329 .99992 3.504 -.24639)" y1="31.415" x1="35.608">
   <stop id="stop7731" stop-color="#467700" offset="0"/>
   <stop id="stop7733" stop-color="#518900" offset="1"/>
  </linearGradient>
  <filter id="filter7785" height="1.2967" width="1.179" y="-.14835" x="-.089480">
   <feGaussianBlur id="feGaussianBlur7787" stdDeviation="1.5684595"/>
  </filter>
 </defs>
 <metadata id="metadata7">
  <rdf:RDF>
   <cc:Work rdf:about="">
    <dc:format>image/svg+xml</dc:format>
    <dc:type rdf:resource="http://purl.org/dc/dcmitype/StillImage"/>
   </cc:Work>
  </rdf:RDF>
 </metadata>
 <g id="layer1">
  <g id="g6847" transform="translate(-.29021 -.74569)">
   <path id="path6363" opacity=".64567" d="m135 109.86a22.5 22.5 0 1 1 -45 0 22.5 22.5 0 1 1 45 0z" transform="matrix(.46667 0 0 .11111 -28.71 33.039)" filter="url(#filter7655)"/>
   <path id="path5513" d="m135 109.86a22.5 22.5 0 1 1 -45 0 22.5 22.5 0 1 1 45 0z" transform="translate(-88.71 -85.616)" fill="url(#linearGradient6853)"/>
   <path id="path5529" d="m7.6379 39.42c0.5303 0 3.6601-7.327 15.593-5.913 11.932 1.414 13.31 9.272 13.31 9.272-2.051 1.401-4.232 2.627-6.983 3.094 0 0-2.999-5.547-8.39-5.194-5.392 0.354-7.255 3.514-7.255 3.514-2.771-0.995-4.9173-2.6-6.2751-4.773z" fill-rule="evenodd" fill="url(#radialGradient6855)"/>
   <path id="path5531" d="m2.6652 29.121c32.651-18.49 28-1.75 42-2.625-0.522-10.933-9.462-22.75-21-22.75-16.965 0.5659-21.717 16.838-21 25.375z" fill-rule="evenodd" filter="url(#filter7785)" fill="url(#linearGradient6857)"/>
  </g>
  <path id="path7661" d="m10.3 11.62c-2.059 0.393-2.3574 3.735 0.465 3.693 11.212-2.112 20.284 0.186 28.905 4.513 1.138 0.553 2.978-1.797 1.35-3.067-9.703-5.145-21.059-6.881-30.72-5.139z" fill="url(#linearGradient7719)"/>
  <path id="path7666" d="m12.304 19.145c-2.131 0.236-2.4746 3.824 0.258 3.503 9.342-1.138 15.292-0.019 23.121 3.161 1.964 1.064 3.042-2.326 1.246-3.204-8.795-3.715-15.517-3.879-24.625-3.46z" fill="url(#linearGradient7727)"/>
  <path id="path7668" d="m14.448 25.703c-1.694 0.605-1.394 3.446 0.415 3.349 3.008-0.33 5.291-0.346 8.753 0.046 3.51 0.397 5.617 1.338 8.541 2.355 1.193 0.509 2.29-1.689 1.031-2.925-3.222-1.253-5.772-2.353-9.799-2.809-3.305-0.371-5.633-0.347-8.941-0.016z" fill="url(#linearGradient7735)"/>
 </g>
</svg>
